static/assets/items/oxide.svg

<?xml version="1.0" encoding="UTF-8" standalone="no"?>
<!-- Created with Inkscape (http://www.inkscape.org/) -->

<svg
   version="1.1"
   id="svg12753"
   width="32"
   height="32"
   viewBox="0 0 32 32"
   sodipodi:docname="oxide.svg"
   inkscape:version="1.2 (dc2aedaf03, 2022-05-15)"
   xmlns:inkscape="http://www.inkscape.org/namespaces/inkscape"
   xmlns:sodipodi="http://sodipodi.sourceforge.net/DTD/sodipodi-0.dtd"
   xmlns="http://www.w3.org/2000/svg"
   xmlns:svg="http://www.w3.org/2000/svg">
  <defs
     id="defs12757" />
  <sodipodi:namedview
     id="namedview12755"
     pagecolor="#505050"
     bordercolor="#eeeeee"
     borderopacity="1"
     inkscape:showpageshadow="0"
     inkscape:pageopacity="0"
     inkscape:pagecheckerboard="0"
     inkscape:deskcolor="#505050"
     showgrid="false"
     inkscape:zoom="25.4375"
     inkscape:cx="7.1744472"
     inkscape:cy="16.019656"
     inkscape:window-width="1920"
     inkscape:window-height="1001"
     inkscape:window-x="-9"
     inkscape:window-y="-9"
     inkscape:window-maximized="1"
     inkscape:current-layer="g12759" />
  <g
     inkscape:groupmode="layer"
     inkscape:label="Image"
     id="g12759">
    <g
       id="g12763">
      <path
         style="fill:#a0b380;fill-opacity:1"
         d="m 21,14.5 q 0.25,-0.25 0.625,-0.375 0.375,-0.125 0.75,0 0.375,0.125 0.625,0.375 0.25,0.25 0.5,0.5 0.25,0.25 0.5,0.5 0.25,0.25 0.5,0.5 0.25,0.25 0.375,0.625 Q 25,17 25,17.5 q 0,0.5 0,1 0,0.5 -0.125,0.875 Q 24.75,19.75 24.5,20 24.25,20.25 24,20.5 23.75,20.75 23.5,21 23.25,21.25 23,21.5 22.75,21.75 22.375,21.875 22,22 21.625,21.875 21.25,21.75 21,21.5 20.75,21.25 20.5,21 20.25,20.75 20,20.5 19.75,20.25 19.5,20 19.25,19.75 19.125,19.375 19,19 19,18.5 19,18 19,17.5 19,17 19.125,16.625 19.25,16.25 19.5,16 19.75,15.75 20,15.5 20.25,15.25 20.5,15 20.75,14.75 21,14.5"
         id="path12773" />
      <path
         style="fill:#e4ffd6;fill-opacity:1"
         d="M 7,14.5 Q 7.25,14.25 7.625,14.125 8,14 8.5,14 H 9 8.625 8.25 8.5 q 0.25,0 0.375,-0.125 L 9,13.75 8.9375,13.8125 8.875,13.875 9.0625,14.3125 Q 9.25,14.75 9.5,15 q 0.25,0.25 0.5,0.5 0.25,0.25 0.5,0.5 0.25,0.25 0.375,0.625 Q 11,17 11,17.5 q 0,0.5 0,1 0,0.5 -0.125,0.875 Q 10.75,19.75 10.5,20 10.25,20.25 10,20.5 9.75,20.75 9.5,21 9.25,21.25 9,21.5 8.75,21.75 8.375,21.875 8,22 7.625,21.875 7.25,21.75 7,21.5 6.75,21.25 6.5,21 6.25,20.75 6,20.5 5.75,20.25 5.5,20 5.25,19.75 5.125,19.375 5,19 5,18.5 5,18 4.96875,17.46875 L 4.9375,16.9375 4.875,17 4.8125,17.0625 4.9375,16.9375 Q 5.0625,16.8125 5.125,16.625 L 5.1875,16.4375 5.09375,16.71875 5,17 5.125,16.625 Q 5.25,16.25 5.5,16 5.75,15.75 6,15.5 6.25,15.25 6.5,15 6.75,14.75 7,14.5"
         id="path12771" />
      <path
         style="fill:#a0b380;fill-opacity:1"
         d="M 9,10.5 V 10 l 0.375,0.125 Q 9.75,10.25 10,10.5 q 0.25,0.25 0.5,0.5 0.25,0.25 0.5,0.5 0.25,0.25 0.5,0.5 0.25,0.25 0.5,0.5 0.25,0.25 0.5,0.5 0.25,0.25 0.5,0.5 0.25,0.25 0.5,0.5 0.25,0.25 0.375,0.625 Q 14,15 14,15.5 q 0,0.5 0,1 0,0.5 0,1 0,0.5 0,1 0,0.5 0,1 0,0.5 0,1 0,0.5 0,1 0,0.5 0.125,0.875 0.125,0.375 0.375,0.625 0.25,0.25 0.5,0.5 0.25,0.25 0.5,0.5 0.25,0.25 0.5,0.5 0.25,0.25 0.5,0.5 0.25,0.25 0.5,0.5 0.25,0.25 0.5,0.5 0.25,0.25 0.5,0.5 0.25,0.25 0.5,0.5 0.25,0.25 0.375,0.625 L 19,28 h -0.5 q -0.5,0 -1,0 -0.5,0 -1,0 -0.5,0 -1,0 -0.5,0 -1,0 -0.5,0 -1,0 -0.5,0 -1,0 -0.5,0 -1,0 -0.5,0 -1,0 -0.5,0 -1,0 Q 9,28 8.625,27.875 8.25,27.75 8,27.5 7.75,27.25 7.5,27 7.25,26.75 7,26.5 6.75,26.25 6.5,26 6.25,25.75 6,25.5 5.75,25.25 5.5,25 5.25,24.75 5,24.5 4.75,24.25 4.5,24 4.25,23.75 4,23.5 3.75,23.25 3.5,23 3.25,22.75 3.125,22.375 3,22 3,21.5 3,21 3,20.5 3,20 3,19.5 3,19 3.125,18.625 3.25,18.25 3.5,18 3.75,17.75 4,17.5 4.25,17.25 4.625,17.125 L 5,17 4.71875,17.09375 4.4375,17.1875 4.625,17.125 Q 4.8125,17.0625 4.9375,16.9375 L 5.0625,16.8125 5,16.875 4.9375,16.9375 4.96875,17.46875 Q 5,18 5,18.5 5,19 5.125,19.375 5.25,19.75 5.5,20 5.75,20.25 6,20.5 6.25,20.75 6.5,21 6.75,21.25 7,21.5 7.25,21.75 7.625,21.875 8,22 8.375,21.875 8.75,21.75 9,21.5 9.25,21.25 9.5,21 9.75,20.75 10,20.5 10.25,20.25 10.5,20 10.75,19.75 10.875,19.375 11,19 11,18.5 11,18 11,17.5 11,17 10.875,16.625 10.75,16.25 10.5,16 10.25,15.75 10,15.5 9.75,15.25 9.5,15 9.25,14.75 9.0625,14.3125 L 8.875,13.875 8.8125,13.9375 8.75,14 8.875,13.875 Q 9,13.75 9,13.5 V 13.25 13.625 14 13.5 Q 9,13 9,12.5 9,12 9,11.5 9,11 9,10.5 M 18.625,28 H 19 19.125 19.25 19 q -0.25,0 -0.5,0 h -0.25 0.375 M 9,9.875 V 10 10.375 10.75 10.5 Q 9,10.25 9,10 V 9.75 9.875"
         id="path12769" />
      <path
         style="fill:#e4ffd6;fill-opacity:1"
         d="M 12,5.5 Q 12.25,5.25 12.625,5.125 13,5 13.5,5 q 0.5,0 1,0 0.5,0 1,0 0.5,0 1,0 0.5,0 1,0 0.5,0 1,0 Q 19,5 19.375,5.125 19.75,5.25 20,5.5 20.25,5.75 20.5,6 20.75,6.25 21,6.5 21.25,6.75 21.5,7 21.75,7.25 21.875,7.625 22,8 22.125,8.375 22.25,8.75 22.5,9 q 0.25,0.25 0.5,0.5 0.25,0.25 0.5,0.5 0.25,0.25 0.5,0.5 0.25,0.25 0.5,0.5 0.25,0.25 0.5,0.5 0.25,0.25 0.5,0.5 0.25,0.25 0.5,0.5 0.25,0.25 0.5,0.5 0.25,0.25 0.5,0.5 0.25,0.25 0.5,0.5 0.25,0.25 0.375,0.625 Q 28,15 28,15.5 q 0,0.5 0,1 0,0.5 0,1 0,0.5 0,1 0,0.5 0,1 0,0.5 0,1 0,0.5 0,1 0,0.5 0,1 0,0.5 -0.125,0.875 Q 27.75,23.75 27.5,24 27.25,24.25 27,24.5 26.75,24.75 26.5,25 26.25,25.25 26,25.5 25.75,25.75 25.5,26 25.25,26.25 25,26.5 24.75,26.75 24.5,27 24.25,27.25 24,27.5 23.75,27.75 23.375,27.875 23,28 22.5,28 q -0.5,0 -1,0 -0.5,0 -1,0 -0.5,0 -1,0 H 19 L 18.875,27.625 Q 18.75,27.25 18.5,27 18.25,26.75 18,26.5 17.75,26.25 17.5,26 17.25,25.75 17,25.5 16.75,25.25 16.5,25 16.25,24.75 16,24.5 15.75,24.25 15.5,24 15.25,23.75 15,23.5 14.75,23.25 14.5,23 14.25,22.75 14.125,22.375 14,22 14,21.5 q 0,-0.5 0,-1 0,-0.5 0,-1 0,-0.5 0,-1 0,-0.5 0,-1 0,-0.5 0,-1 0,-0.5 0,-1 Q 14,15 13.875,14.625 13.75,14.25 13.5,14 13.25,13.75 13,13.5 12.75,13.25 12.5,13 12.25,12.75 12,12.5 11.75,12.25 11.5,12 11.25,11.75 11,11.5 10.75,11.25 10.5,11 10.25,10.75 10,10.5 9.75,10.25 9.375,10.125 L 9,10 V 9.5 Q 9,9 9.125,8.625 9.25,8.25 9.5,8 9.75,7.75 10,7.5 10.25,7.25 10.5,7 10.75,6.75 11,6.5 11.25,6.25 11.5,6 11.75,5.75 12,5.5 M 9,9.625 V 10 10.125 10.25 10 Q 9,9.75 9,9.5 V 9.25 9.625 M 18.875,28 H 19 19.375 19.75 19.5 q -0.25,0 -0.5,0 h -0.25 0.125 m 2.75,-6.125 Q 22,22 22.375,21.875 22.75,21.75 23,21.5 23.25,21.25 23.5,21 23.75,20.75 24,20.5 24.25,20.25 24.5,20 24.75,19.75 24.875,19.375 25,19 25,18.5 25,18 25,17.5 25,17 24.875,16.625 24.75,16.25 24.5,16 24.25,15.75 24,15.5 23.75,15.25 23.5,15 23.25,14.75 23,14.5 22.75,14.25 22.375,14.125 22,14 21.625,14.125 21.25,14.25 21,14.5 20.75,14.75 20.5,15 20.25,15.25 20,15.5 19.75,15.75 19.5,16 19.25,16.25 19.125,16.625 19,17 19,17.5 q 0,0.5 0,1 0,0.5 0.125,0.875 0.125,0.375 0.375,0.625 0.25,0.25 0.5,0.5 0.25,0.25 0.5,0.5 0.25,0.25 0.5,0.5 0.25,0.25 0.625,0.375"
         id="path12767" />
      <path
         style="fill:#000000;fill-opacity:0"
         d="M 0,0.5 V 0 H 0.5 1 1.5 2 2.5 3 3.5 4 4.5 5 5.5 6 6.5 7 7.5 8 8.5 9 9.5 10 10.5 11 11.5 12 12.5 13 13.5 14 14.5 15 15.5 16 16.5 17 17.5 18 18.5 19 19.5 20 20.5 21 21.5 22 22.5 23 23.5 24 24.5 25 25.5 26 26.5 27 27.5 28 28.5 29 29.5 30 30.5 31 31.5 32 V 0.5 1 1.5 2 2.5 3 3.5 4 4.5 5 5.5 6 6.5 7 7.5 8 8.5 9 9.5 10 10.5 11 11.5 12 12.5 13 13.5 14 14.5 15 15.5 16 16.5 17 17.5 18 18.5 19 19.5 20 20.5 21 21.5 22 22.5 23 23.5 24 24.5 25 25.5 26 26.5 27 27.5 28 28.5 29 29.5 30 30.5 31 31.5 32 H 31.5 31 30.5 30 29.5 29 28.5 28 27.5 27 26.5 26 25.5 25 24.5 24 23.5 23 22.5 22 21.5 21 20.5 20 19.5 19 18.5 18 17.5 17 16.5 16 15.5 15 14.5 14 13.5 13 12.5 12 11.5 11 10.5 10 9.5 9 8.5 8 7.5 7 6.5 6 5.5 5 4.5 4 3.5 3 2.5 2 1.5 1 0.5 0 V 31.5 31 30.5 30 29.5 29 28.5 28 27.5 27 26.5 26 25.5 25 24.5 24 23.5 23 22.5 22 21.5 21 20.5 20 19.5 19 18.5 18 17.5 17 16.5 16 15.5 15 14.5 14 13.5 13 12.5 12 11.5 11 10.5 10 9.5 9 8.5 8 7.5 7 6.5 6 5.5 5 4.5 4 3.5 3 2.5 2 1.5 1 0.5 M 22.5,28 Q 23,28 23.375,27.875 23.75,27.75 24,27.5 24.25,27.25 24.5,27 24.75,26.75 25,26.5 25.25,26.25 25.5,26 25.75,25.75 26,25.5 26.25,25.25 26.5,25 26.75,24.75 27,24.5 27.25,24.25 27.5,24 27.75,23.75 27.875,23.375 28,23 28,22.5 q 0,-0.5 0,-1 0,-0.5 0,-1 0,-0.5 0,-1 0,-0.5 0,-1 0,-0.5 0,-1 0,-0.5 0,-1 0,-0.5 0,-1 Q 28,15 27.875,14.625 27.75,14.25 27.5,14 27.25,13.75 27,13.5 26.75,13.25 26.5,13 26.25,12.75 26,12.5 25.75,12.25 25.5,12 25.25,11.75 25,11.5 24.75,11.25 24.5,11 24.25,10.75 24,10.5 23.75,10.25 23.5,10 23.25,9.75 23,9.5 22.75,9.25 22.5,9 22.25,8.75 22.125,8.375 22,8 21.875,7.625 21.75,7.25 21.5,7 21.25,6.75 21,6.5 20.75,6.25 20.5,6 20.25,5.75 20,5.5 19.75,5.25 19.375,5.125 19,5 18.5,5 18,5 17.5,5 17,5 16.5,5 16,5 15.5,5 15,5 14.5,5 14,5 13.5,5 13,5 12.625,5.125 12.25,5.25 12,5.5 11.75,5.75 11.5,6 11.25,6.25 11,6.5 10.75,6.75 10.5,7 10.25,7.25 10,7.5 9.75,7.75 9.5,8 9.25,8.25 9.125,8.625 9,9 9,9.5 q 0,0.5 0,1 0,0.5 0,1 0,0.5 0,1 0,0.5 0,1 Q 9,14 8.5,14 8,14 7.625,14.125 7.25,14.25 7,14.5 6.75,14.75 6.5,15 6.25,15.25 6,15.5 5.75,15.75 5.5,16 5.25,16.25 5.125,16.625 5,17 4.625,17.125 4.25,17.25 4,17.5 3.75,17.75 3.5,18 3.25,18.25 3.125,18.625 3,19 3,19.5 3,20 3,20.5 3,21 3,21.5 3,22 3.125,22.375 3.25,22.75 3.5,23 3.75,23.25 4,23.5 4.25,23.75 4.5,24 4.75,24.25 5,24.5 5.25,24.75 5.5,25 5.75,25.25 6,25.5 6.25,25.75 6.5,26 6.75,26.25 7,26.5 7.25,26.75 7.5,27 7.75,27.25 8,27.5 8.25,27.75 8.625,27.875 9,28 9.5,28 q 0.5,0 1,0 0.5,0 1,0 0.5,0 1,0 0.5,0 1,0 0.5,0 1,0 0.5,0 1,0 0.5,0 1,0 0.5,0 1,0 0.5,0 1,0 0.5,0 1,0 0.5,0 1,0 0.5,0 1,0 0.5,0 1,0"
         id="path12765" />
    </g>
  </g>
</svg>

<svg width="32" height="32" xmlns="http://www.w3.org/2000/svg"><path style="fill:#a0b380;fill-opacity:1" d="m21 14.5.6-.4q.4-.1.8 0l.6.4.5.5.5.5.5.5.4.6.1.9v1l-.1.9q-.1.4-.4.6l-.5.5-.5.5-.5.5-.6.4q-.4.1-.8 0t-.6-.4l-.5-.5-.5-.5-.5-.5-.4-.6-.1-.9v-1l.1-.9q.1-.4.4-.6l.5-.5.5-.5.5-.5"/><path style="fill:#e4ffd6;fill-opacity:1" d="m7 14.5.6-.4.9-.1H9h-.7.2l.4-.1.1-.2v.1h-.1l.2.5.4.7.5.5.5.5.4.6.1.9v1l-.1.9-.4.6-.5.5-.5.5-.5.5-.6.4q-.4.1-.8 0l-.6-.4-.5-.5-.5-.5-.5-.5-.4-.6-.1-.9v-1.6l-.1.1.2-.4v-.2.3L5 17l.1-.4.4-.6.5-.5.5-.5.5-.5"/><path style="fill:#a0b380;fill-opacity:1" d="M9 10.5V10l.4.1.6.4.5.5.5.5.5.5.5.5.5.5.5.5.5.5.4.6.1.9v6l.1.9.4.6.5.5.5.5.5.5.5.5.5.5.5.5.5.5.5.5.4.6.1.4H9.5l-.9-.1-.6-.4-.5-.5-.5-.5-.5-.5-.5-.5-.5-.5-.5-.5-.5-.5-.5-.5-.5-.5-.4-.6-.1-.9v-2l.1-.9q.1-.4.4-.6l.5-.5.6-.4.4-.1h-.3l-.3.2h.2l.3-.3h.2H5v1.6l.1.9.4.6.5.5.5.5.5.5.6.4q.4.1.8 0l.6-.4.5-.5.5-.5.5-.5.4-.6.1-.9v-1l-.1-.9-.4-.6-.5-.5-.5-.5q-.3-.3-.4-.7l-.2-.4-.2.1.2-.1.1-.4v-.3.8-3.5M18.6 28h.6-1 .4M9 9.9v.8-1 .2"/><path style="fill:#e4ffd6;fill-opacity:1" d="m12 5.5.6-.4.9-.1h5l.9.1.6.4.5.5.5.5.5.5.4.6.2.8.4.6.5.5.5.5.5.5.5.5.5.5.5.5.5.5.5.5.5.5.5.5.4.6.1.9v7l-.1.9q-.1.4-.4.6l-.5.5-.5.5-.5.5-.5.5-.5.5-.5.5-.5.5-.6.4-.9.1H19l-.1-.4q-.1-.4-.4-.6l-.5-.5-.5-.5-.5-.5-.5-.5-.5-.5-.5-.5-.5-.5-.5-.5-.4-.6-.1-.9v-6l-.1-.9-.4-.6-.5-.5-.5-.5-.5-.5-.5-.5-.5-.5-.5-.5-.5-.5-.6-.4L9 10v-.5l.1-.9.4-.6.5-.5.5-.5.5-.5.5-.5.5-.5M9 9.6v.7-1.1.4M18.9 28h.9-1.1.2m2.7-6.1q.4.1.8 0t.6-.4l.5-.5.5-.5.5-.5.4-.6.1-.9v-1l-.1-.9q-.1-.4-.4-.6l-.5-.5-.5-.5-.5-.5-.6-.4q-.4-.1-.8 0l-.6.4-.5.5-.5.5-.5.5-.4.6-.1.9v1l.1.9q.1.4.4.6l.5.5.5.5.5.5.6.4"/><path style="fill:#000;fill-opacity:0" d="M0 .5V0h32v32H0V.5M22.5 28l.9-.1q.4-.1.6-.4l.5-.5.5-.5.5-.5.5-.5.5-.5.5-.5.5-.5.4-.6.1-.9v-7l-.1-.9-.4-.6-.5-.5-.5-.5-.5-.5-.5-.5-.5-.5-.5-.5-.5-.5-.5-.5-.5-.5-.5-.5-.4-.6-.2-.8-.4-.6-.5-.5-.5-.5-.5-.5-.6-.4-.9-.1h-5l-.9.1-.6.4-.5.5-.5.5-.5.5-.5.5-.5.5-.4.6-.1.9v4q0 .5-.5.5l-.9.1-.6.4-.5.5-.5.5-.5.5-.4.6q-.1.4-.5.5l-.6.4-.5.5-.4.6-.1.9v2l.1.9q.1.4.4.6l.5.5.5.5.5.5.5.5.5.5.5.5.5.5.5.5.5.5.6.4.9.1h13" fill="none"/></svg>
